dist/images/logo1.svg

<svg width="125" height="31" viewBox="0 0 125 31" fill="none" xmlns="http://www.w3.org/2000/svg">
<path d="M109.328 10.4767C110.021 10.4767 110.592 10.1176 110.669 9.65351L111.353 1.94005C111.353 1.17764 110.457 0.551758 109.33 0.551758C108.205 0.551758 107.31 1.17764 107.31 1.94018L107.993 9.65351C108.069 10.1174 108.639 10.4767 109.33 10.4767H109.328ZM105.146 12.886C105.494 12.2885 105.467 11.6169 105.101 11.3186L98.7405 6.87116C98.0792 6.48941 97.0877 6.94891 96.525 7.92173C95.9603 8.89331 96.0604 9.97843 96.7199 10.3603L103.763 13.629C104.203 13.7917 104.803 13.4786 105.148 12.8815L105.146 12.886ZM113.514 12.8819C113.861 13.479 114.458 13.7922 114.899 13.6294L121.942 10.3607C122.605 9.97898 122.7 8.89373 122.14 7.92215C121.575 6.95029 120.581 6.48982 119.922 6.87157L113.561 11.319C113.198 11.6169 113.171 12.289 113.516 12.8864L113.514 12.8819ZM109.328 20.112C110.021 20.112 110.592 20.4682 110.669 20.9327L111.353 28.645C111.353 29.4098 110.457 30.0343 109.33 30.0343C108.205 30.0343 107.31 29.4098 107.31 28.645L107.993 20.9327C108.069 20.4682 108.639 20.112 109.33 20.112H109.328ZM113.514 17.7022C113.861 17.1034 114.458 16.793 114.899 16.9576L121.942 20.2241C122.605 20.6062 122.7 21.6924 122.14 22.6649C121.575 23.6335 120.581 24.0952 119.922 23.714L113.561 19.2708C113.198 18.9705 113.171 18.298 113.516 17.701H113.513L113.514 17.7022ZM105.146 17.7014C105.494 18.298 105.467 18.9705 105.101 19.2713L98.7405 23.7145C98.0792 24.0957 97.0877 23.634 96.525 22.6653C95.9603 21.6929 96.0604 20.6066 96.7199 20.2245L103.763 16.958C104.203 16.7934 104.803 17.1039 105.148 17.7028H105.146" fill="#FDBB30"/>
<path d="M69.2064 19.257C69.2064 19.4937 69.1853 19.7378 69.1202 19.9522C68.8505 20.8427 67.9255 21.5958 66.7683 21.5958C65.8034 21.5958 65.037 21.0494 65.037 19.8955C65.037 18.1294 66.9871 17.6417 69.2069 17.654L69.2064 19.2568V19.257ZM72.6882 16.1793C72.6882 13.2671 71.4399 10.7047 67.2219 10.7047C65.0568 10.7047 63.3384 11.3109 62.4004 11.8512L63.0874 14.1923C63.9446 13.6529 65.3108 13.2063 66.6037 13.2063C68.7432 13.2004 69.0936 14.414 69.0936 15.1908V15.3746C64.4298 15.3677 61.4818 16.9774 61.4818 20.2566C61.4818 22.2603 62.9833 24.137 65.5934 24.137C67.1972 24.137 68.5405 23.4989 69.3444 22.4757H69.4238C69.4238 22.4757 69.9558 24.6971 72.8924 23.8472C72.7391 22.9234 72.6888 21.9372 72.6888 20.7513L72.6883 16.1793H72.6882ZM0.0224609 6.73883C0.0224609 6.73883 3.07009 19.1869 3.55675 21.2071C4.12444 23.5652 5.14759 24.4333 8.0961 23.8472L9.99895 16.1299C10.4815 14.212 10.8044 12.8447 11.1153 10.8957H11.1694C11.3877 12.8653 11.6973 14.2179 12.0944 16.1362C12.0944 16.1362 12.8686 19.6399 13.2658 21.4796C13.6634 23.3187 14.7701 24.4786 17.6585 23.8472L22.1929 6.73828H18.533L16.9843 14.1356C16.5679 16.288 16.1904 17.9717 15.8991 19.9404H15.8474C15.5827 17.9891 15.2457 16.374 14.8228 14.2764L13.2117 6.73828H9.39771L7.67336 14.0864C7.18533 16.3199 6.72766 18.1227 6.43774 20.0258H6.385C6.08735 18.2338 5.69113 15.9671 5.26232 13.8061C5.26232 13.8061 4.23862 8.55002 3.87856 6.73828L0.0224609 6.73883ZM29.116 19.257C29.116 19.4937 29.0949 19.7378 29.0289 19.9522C28.7597 20.8427 27.8341 21.5958 26.6769 21.5958C25.7119 21.5958 24.9466 21.0494 24.9466 19.8955C24.9466 18.1294 26.8961 17.6417 29.1164 17.654L29.116 19.2568V19.257ZM32.5974 16.1793C32.5974 13.2671 31.3491 10.7047 27.132 10.7047C24.9662 10.7047 23.2464 11.3109 22.309 11.8512L22.9952 14.1923C23.8522 13.6529 25.2185 13.2063 26.5118 13.2063C28.6528 13.2004 29.0032 14.414 29.0032 15.1908V15.3746C24.3375 15.3677 21.3908 16.9774 21.3908 20.2566C21.3908 22.2603 22.8915 24.137 25.4997 24.137C27.1057 24.137 28.4482 23.4989 29.2531 22.4757H29.3315C29.3315 22.4757 29.8649 24.6971 32.8009 23.8472C32.6474 22.9234 32.5974 21.9372 32.5974 20.7513V16.1793ZM38.4077 20.2155V6.73883H34.9217V23.8477H38.4077V20.2155ZM84.0105 6.73883V19.3597C84.0105 21.1006 84.3398 22.3189 85.0418 23.0646C85.657 23.7165 86.6677 24.1384 87.8798 24.1384C88.9109 24.1384 89.9245 23.9423 90.4028 23.7654L90.3578 21.0508C90.0019 21.1375 89.5933 21.2077 89.0339 21.2077C87.846 21.2077 87.4488 20.4491 87.4488 18.887V14.058H90.4844V10.7841H87.4488V6.73883H84.0105ZM75.0127 10.9949V23.8477H78.6087V17.2669C78.6087 16.9111 78.6302 16.6012 78.6867 16.3177C78.9527 14.9385 80.0102 14.058 81.5293 14.058C81.9457 14.058 82.2438 14.1032 82.5667 14.1489V10.7841C82.2957 10.7303 82.1118 10.7051 81.7746 10.7051C80.4327 10.7051 78.9059 11.5682 78.2652 13.4198H78.168V10.9949H75.0127ZM40.8486 10.9949V23.8477H44.3521V16.3108C44.3521 15.9572 44.3938 15.5831 44.5166 15.2589C44.807 14.5001 45.5155 13.6113 46.646 13.6113C48.0604 13.6113 48.7209 14.8027 48.7209 16.5221V23.8468H52.2217V16.2181C52.2217 15.8806 52.2679 15.4738 52.368 15.1763C52.6554 14.3126 53.4186 13.6104 54.4698 13.6104C55.903 13.6104 56.5909 14.7808 56.5909 16.8046V23.8464H60.094V16.276C60.094 12.2841 58.0604 10.7039 55.7645 10.7039C54.7487 10.7039 53.946 10.9575 53.2201 11.4009C52.6106 11.7752 52.0639 12.3056 51.5869 13.0028H51.5351C50.9815 11.6177 49.6789 10.7046 47.9815 10.7046C45.8008 10.7046 44.8208 11.8065 44.2263 12.7409H44.1741V10.9945H40.8486" fill="#1A75CF"/>
<path d="M123.709 23.2223H123.761C123.832 23.2223 123.877 23.1934 123.877 23.1505C123.877 23.1016 123.834 23.0751 123.769 23.0751C123.747 23.0751 123.724 23.0796 123.709 23.0796V23.2236V23.2222L123.709 23.2223ZM123.7 23.5689H123.514V22.964C123.556 22.9558 123.655 22.941 123.781 22.941C123.918 22.941 123.98 22.9603 124.025 22.9906C124.063 23.017 124.09 23.0622 124.09 23.1231C124.09 23.1852 124.033 23.2378 123.948 23.2607V23.2684C124.017 23.2867 124.055 23.3366 124.075 23.4239C124.093 23.5112 124.105 23.5468 124.117 23.5693H123.906C123.887 23.5468 123.877 23.4933 123.864 23.4399C123.852 23.3787 123.823 23.348 123.761 23.348H123.7L123.7 23.5689ZM123.777 22.767C123.51 22.767 123.308 22.9841 123.308 23.261C123.308 23.5307 123.511 23.7508 123.785 23.7508C124.06 23.7553 124.262 23.5309 124.262 23.2566C124.262 22.9836 124.06 22.767 123.782 22.767H123.777ZM123.789 22.6028C124.162 22.6028 124.459 22.8954 124.459 23.2565C124.459 23.6218 124.162 23.9148 123.784 23.9148C123.406 23.9148 123.105 23.6214 123.105 23.2566C123.105 22.8954 123.407 22.6029 123.784 22.6029H123.788" fill="#FDBB30"/>
</svg>

<svg width="125" height="31" viewBox="0 0 125 31" fill="none" xmlns="http://www.w3.org/2000/svg"><path d="M109.328 10.477c.693 0 1.264-.36 1.341-.823l.684-7.714c0-.762-.896-1.388-2.023-1.388-1.125 0-2.02.626-2.02 1.388l.683 7.714c.076.463.646.823 1.337.823h-.002zm-4.182 2.409c.348-.597.321-1.27-.045-1.567l-6.36-4.448c-.662-.382-1.653.078-2.216 1.05-.565.972-.465 2.057.195 2.44l7.043 3.268c.44.163 1.04-.15 1.385-.747l-.002.004zm8.368-.004c.347.597.944.91 1.385.747l7.043-3.268c.663-.382.758-1.467.198-2.439-.565-.972-1.559-1.432-2.218-1.05l-6.361 4.447c-.363.298-.39.97-.045 1.567l-.002-.004zm-4.186 7.23c.693 0 1.264.356 1.341.82l.684 7.713c0 .765-.896 1.39-2.023 1.39-1.125 0-2.02-.625-2.02-1.39l.683-7.712c.076-.465.646-.821 1.337-.821h-.002zm4.186-2.41c.347-.599.944-.909 1.385-.744l7.043 3.266c.663.382.758 1.468.198 2.44-.565.97-1.559 1.431-2.218 1.05l-6.361-4.443c-.363-.3-.39-.973-.045-1.57h-.003l.001.001zm-8.368 0c.348.596.321 1.268-.045 1.57l-6.36 4.443c-.662.38-1.653-.081-2.216-1.05-.565-.972-.465-2.058.195-2.44l7.043-3.267c.44-.165 1.04.146 1.385.745h-.002" fill="#FDBB30"/><path d="M69.206 19.257c0 .237-.02.48-.086.695-.27.89-1.195 1.644-2.352 1.644-.965 0-1.731-.547-1.731-1.7 0-1.767 1.95-2.254 4.17-2.242v1.603zm3.482-3.078c0-2.912-1.248-5.474-5.466-5.474-2.165 0-3.884.606-4.822 1.146l.687 2.341c.858-.54 2.224-.986 3.517-.986 2.14-.006 2.49 1.208 2.49 1.985v.184c-4.664-.007-7.612 1.602-7.612 4.882 0 2.003 1.501 3.88 4.111 3.88 1.604 0 2.947-.638 3.751-1.661h.08s.532 2.221 3.468 1.371c-.153-.924-.203-1.91-.203-3.096V16.18zM.022 6.74S3.07 19.187 3.557 21.207c.567 2.358 1.59 3.226 4.54 2.64l1.902-7.717c.482-1.918.805-3.285 1.116-5.234h.054c.219 1.97.528 3.322.925 5.24 0 0 .775 3.504 1.172 5.344.397 1.839 1.504 2.999 4.393 2.367l4.534-17.109h-3.66l-1.549 7.398c-.416 2.152-.794 3.836-1.085 5.804h-.052c-.264-1.95-.601-3.566-1.024-5.664l-1.611-7.538H9.398l-1.725 7.348c-.488 2.234-.945 4.037-1.235 5.94h-.053a209.166 209.166 0 0 0-1.123-6.22S4.24 8.55 3.88 6.738H.022zm29.094 12.518c0 .237-.021.48-.087.695-.27.89-1.195 1.644-2.352 1.644-.965 0-1.73-.547-1.73-1.7 0-1.767 1.95-2.254 4.17-2.242l-.001 1.603zm3.481-3.078c0-2.912-1.248-5.474-5.465-5.474-2.166 0-3.886.606-4.823 1.146l.686 2.341c.857-.54 2.223-.986 3.517-.986 2.14-.006 2.491 1.208 2.491 1.985v.184c-4.666-.007-7.612 1.602-7.612 4.882 0 2.003 1.5 3.88 4.109 3.88 1.606 0 2.948-.638 3.753-1.661h.078s.534 2.221 3.47 1.371c-.154-.924-.204-1.91-.204-3.096V16.18zm5.81 4.037V6.738h-3.485v17.109h3.486v-3.633zM84.01 6.738v12.62c0 1.742.33 2.96 1.032 3.706.615.651 1.626 1.073 2.838 1.073 1.03 0 2.044-.196 2.523-.373l-.045-2.714a5.342 5.342 0 0 1-1.324.157c-1.188 0-1.585-.759-1.585-2.321v-4.829h3.035v-3.274H87.45V6.74H84.01zm-8.997 4.256v12.853h3.596v-6.581c0-.356.021-.666.078-.95.266-1.379 1.323-2.259 2.842-2.259.417 0 .715.045 1.038.09v-3.364a3.514 3.514 0 0 0-.792-.079c-1.342 0-2.87.863-3.51 2.715h-.097v-2.425h-3.155zm-34.164 0v12.853h3.503V16.31c0-.354.042-.728.165-1.052.29-.759.998-1.648 2.129-1.648 1.414 0 2.075 1.192 2.075 2.911v7.325h3.5v-7.629c0-.337.047-.744.147-1.042.287-.863 1.05-1.566 2.102-1.566 1.433 0 2.12 1.17 2.12 3.195v7.041h3.504v-7.57c0-3.992-2.034-5.572-4.33-5.572-1.015 0-1.818.253-2.544.697-.61.374-1.156.905-1.633 1.602h-.052c-.553-1.385-1.856-2.298-3.553-2.298-2.181 0-3.161 1.101-3.756 2.036h-.052v-1.746H40.85" fill="#1A75CF"/><path d="M123.709 23.222h.052c.071 0 .116-.029.116-.072 0-.048-.043-.075-.108-.075-.022 0-.045.005-.06.005v.144-.002zm-.009.347h-.186v-.605c.042-.008.141-.023.267-.023.137 0 .199.02.244.05a.156.156 0 0 1 .065.132c0 .062-.057.115-.142.138v.007c.069.019.107.069.127.156.018.087.03.123.042.145h-.211c-.019-.022-.029-.076-.042-.13-.012-.06-.041-.091-.103-.091h-.061v.22zm.077-.802c-.267 0-.469.217-.469.494 0 .27.203.49.477.49.275.004.477-.22.477-.494a.475.475 0 0 0-.48-.49h-.005zm.012-.164a.66.66 0 0 1 .67.653.662.662 0 0 1-.675.659.666.666 0 0 1-.679-.658c0-.362.302-.654.679-.654h.004" fill="#FDBB30"/></svg>
